Numix/24/emotes/face-pirate.svg

<?xml version="1.0" encoding="UTF-8" standalone="no"?>
<svg
   xmlns:dc="http://purl.org/dc/elements/1.1/"
   xmlns:cc="http://creativecommons.org/ns#"
   xmlns:rdf="http://www.w3.org/1999/02/22-rdf-syntax-ns#"
   xmlns:svg="http://www.w3.org/2000/svg"
   xmlns="http://www.w3.org/2000/svg"
   xmlns:sodipodi="http://sodipodi.sourceforge.net/DTD/sodipodi-0.dtd"
   xmlns:inkscape="http://www.inkscape.org/namespaces/inkscape"
   width="24px"
   height="24px"
   viewBox="0 0 18 18"
   version="1.1"
   id="svg664"
   inkscape:version="0.91 r"
   sodipodi:docname="face-pirate.svg">
  <metadata
     id="metadata685">
    <rdf:RDF>
      <cc:Work
         rdf:about="">
        <dc:format>image/svg+xml</dc:format>
        <dc:type
           rdf:resource="http://purl.org/dc/dcmitype/StillImage" />
      </cc:Work>
    </rdf:RDF>
  </metadata>
  <defs
     id="defs683" />
  <sodipodi:namedview
     pagecolor="#ffffff"
     bordercolor="#666666"
     borderopacity="1"
     objecttolerance="10"
     gridtolerance="10"
     guidetolerance="10"
     inkscape:pageopacity="0"
     inkscape:pageshadow="2"
     inkscape:window-width="640"
     inkscape:window-height="480"
     id="namedview681" />
  <g
     id="surface1">
    <path
       style=" stroke:none;fill-rule:nonzero;fill:rgb(100%,85.490196%,36.862745%);fill-opacity:1;"
       d="M 15.75 9 C 15.75 12.210938 12.726562 14.8125 9 14.8125 C 5.273438 14.8125 2.25 12.210938 2.25 9 C 2.25 5.789062 5.273438 3.1875 9 3.1875 C 12.726562 3.1875 15.75 5.789062 15.75 9 Z M 15.75 9 "
       id="path667" />
    <path
       style=" stroke:none;fill-rule:nonzero;fill:rgb(39.607843%,39.607843%,39.607843%);fill-opacity:1;"
       d="M 6.25 6.894531 C 5.976562 7.066406 5.8125 7.367188 5.8125 7.6875 C 5.8125 8.207031 6.230469 8.625 6.75 8.625 C 7.253906 8.625 7.667969 8.226562 7.6875 7.722656 Z M 6.25 6.894531 "
       id="path669" />
    <path
       style=" stroke:none;fill-rule:nonzero;fill:rgb(39.607843%,39.607843%,39.607843%);fill-opacity:1;"
       d="M 11.75 6.894531 L 10.3125 7.722656 C 10.332031 8.226562 10.746094 8.625 11.25 8.625 C 11.769531 8.625 12.1875 8.207031 12.1875 7.6875 C 12.1875 7.367188 12.019531 7.066406 11.75 6.894531 Z M 11.75 6.894531 "
       id="path671" />
    <path
       style=" stroke:none;fill-rule:nonzero;fill:rgb(39.607843%,39.607843%,39.607843%);fill-opacity:1;"
       d="M 11.222656 10.5 C 11.066406 11.144531 10.117188 11.625 9 11.625 L 9 12.375 C 10.28125 12.375 11.371094 11.582031 11.585938 10.5 Z M 11.222656 10.5 "
       id="path673" />
    <path
       style=" stroke:none;fill-rule:nonzero;fill:rgb(27.45098%,27.45098%,27.45098%);fill-opacity:1;"
       d="M 10.5 6.375 L 12.375 6.375 C 12.789062 6.375 13.125 6.710938 13.125 7.125 L 13.125 8.625 C 13.125 9.039062 12.789062 9.375 12.375 9.375 L 10.5 9.375 C 10.085938 9.375 9.75 9.039062 9.75 8.625 L 9.75 7.125 C 9.75 6.710938 10.085938 6.375 10.5 6.375 Z M 10.5 6.375 "
       id="path675" />
    <path
       style=" stroke:none;fill-rule:nonzero;fill:rgb(27.45098%,27.45098%,27.45098%);fill-opacity:1;"
       d="M 12.9375 7.875 C 12.832031 7.875 12.75 7.957031 12.75 8.0625 C 12.75 8.167969 12.832031 8.25 12.9375 8.25 L 15.691406 8.25 C 15.667969 8.125 15.644531 8 15.613281 7.875 Z M 12.9375 7.875 "
       id="path677" />
    <path
       style=" stroke:none;fill-rule:nonzero;fill:rgb(27.45098%,27.45098%,27.45098%);fill-opacity:1;"
       d="M 7.304688 3.378906 C 7.164062 3.410156 7.023438 3.445312 6.886719 3.488281 L 10.3125 6.914062 C 10.386719 6.988281 10.503906 6.988281 10.578125 6.914062 C 10.652344 6.839844 10.652344 6.722656 10.578125 6.648438 Z M 7.304688 3.378906 "
       id="path679" />
  </g>
</svg>

<svg xmlns="http://www.w3.org/2000/svg" width="24" height="24" viewBox="0 0 18 18">
 <g>
  <path d="m 15.75 9 c 0 3.211 -3.02 5.813 -6.75 5.813 c -3.727 0 -6.75 -2.602 -6.75 -5.813 c 0 -3.211 3.02 -5.813 6.75 -5.813 c 3.727 0 6.75 2.602 6.75 5.813 m 0 0" style="fill:#ffd95d;fill-opacity:1;stroke:none;fill-rule:nonzero"/>
  <path d="m 6.25 6.895 c -0.273 0.172 -0.438 0.473 -0.438 0.793 c 0 0.52 0.418 0.938 0.938 0.938 c 0.504 0 0.918 -0.398 0.938 -0.902 m -1.438 -0.828" style="fill:#646464;fill-opacity:1;stroke:none;fill-rule:nonzero"/>
  <path d="m 11.75 6.895 l -1.438 0.828 c 0.02 0.504 0.434 0.902 0.938 0.902 c 0.52 0 0.938 -0.418 0.938 -0.938 c 0 -0.32 -0.168 -0.621 -0.438 -0.793 m 0 0" style="fill:#646464;fill-opacity:1;stroke:none;fill-rule:nonzero"/>
  <path d="m 11.223 10.5 c -0.156 0.645 -1.105 1.125 -2.223 1.125 l 0 0.75 c 1.281 0 2.371 -0.793 2.586 -1.875 m -0.363 0" style="fill:#646464;fill-opacity:1;stroke:none;fill-rule:nonzero"/>
  <path d="m 10.5 6.375 l 1.875 0 c 0.414 0 0.75 0.336 0.75 0.75 l 0 1.5 c 0 0.414 -0.336 0.75 -0.75 0.75 l -1.875 0 c -0.414 0 -0.75 -0.336 -0.75 -0.75 l 0 -1.5 c 0 -0.414 0.336 -0.75 0.75 -0.75 m 0 0" style="fill:#454545;fill-opacity:1;stroke:none;fill-rule:nonzero"/>
  <path d="m 12.938 7.875 c -0.105 0 -0.188 0.082 -0.188 0.188 c 0 0.105 0.082 0.188 0.188 0.188 l 2.754 0 c -0.023 -0.125 -0.047 -0.25 -0.078 -0.375 m -2.676 0" style="fill:#454545;fill-opacity:1;stroke:none;fill-rule:nonzero"/>
  <path d="m 7.305 3.379 c -0.141 0.031 -0.281 0.066 -0.418 0.109 l 3.426 3.426 c 0.074 0.074 0.191 0.074 0.266 0 c 0.074 -0.074 0.074 -0.191 0 -0.266 m -3.273 -3.27" style="fill:#454545;fill-opacity:1;stroke:none;fill-rule:nonzero"/>
 </g>
</svg>
